X:1
T:Waltz For Kylin
R:waltz
M:3/4
L:1/8
K:D
F>E|:D3F A>B|A2 d3e|f>e de/f/ e>d|B3A B>c|
|d>B A>F A>B|A2 F2 D2|G2 F2 D>F|E3G F>E|
|D3F A>B|A2 d3e|f>e de/f/ e>d|B3A B>c|
|d>B A>F A>B|E3F E>D|B,2 D2 D>E|1 D3G F>E:|2 D3c d>e|]
|:f>e de/f/ e>d|B4 B>A|d3e f>g|e3c d>e|
|f>e de/f/ e>d|B3g f>g|f3a a>f|e2 ef/e/ d>c|
|d2 DE/F/ d>B|A3c d>e|f>e de/f/ e>d|B3A B>c|
|d>B A>F A>B|E3F E>D|B,2 D2 D>E|1 D3c d>e:|2 D3G F>E|]